X: 1
T: Be Thou My Vision
O: trad Irish hymn
Z: 2009 John Chambers <jc:trillian.mit.edu>
F: http://makingmusicfun.net/pdf/sheet_music/be-thou-my-vision-piano.pdf
F: http://www.thesession.org/tunes/display/6415	2009-6-30
M: 3/4
L: 1/8
R: waltz
K: Gmaj
G2 G2 AG|E2 D2 DE|G2 G2 A2|B6|
w: Be Thou my_ Vi-sion, O_ Lord of my heart;
A2 A2 A2|A2 B2 d2|e2 d2 B2|d6|
w: Naught be all else to me, save that Thou art,
e2 ef gf|e2 d2 B2|d2 G2 F2|E4 D2|
w: Thou my_ best* thought,_ by day or by night,_
G2 B2 d2|ed B2 GB|A2 G2 G2|G6 ||
w:Wak-ing or sleep-*ing, Thy* pre-sence my light.
